documentation/public/assets/images/02-tabs-dont.svg

<svg width="271" height="136" viewBox="0 0 271 136" fill="none" xmlns="http://www.w3.org/2000/svg">
<rect width="264" height="44" fill="white"/>
<line y1="43.5" x2="264" y2="43.5" stroke="#EBEBEB"/>
<path d="M16.3523 16.3636H18.733L21.5795 21.5114H21.6932L24.5398 16.3636H26.9205L22.6875 23.6591V28H20.5852V23.6591L16.3523 16.3636ZM38.1548 22.1818C38.1548 23.4356 37.92 24.5095 37.4503 25.4034C36.9844 26.2936 36.348 26.9754 35.5412 27.4489C34.7382 27.9223 33.8272 28.1591 32.8082 28.1591C31.7893 28.1591 30.8764 27.9223 30.0696 27.4489C29.2666 26.9716 28.6302 26.2879 28.1605 25.3977C27.6946 24.5038 27.4616 23.4318 27.4616 22.1818C27.4616 20.928 27.6946 19.8561 28.1605 18.9659C28.6302 18.072 29.2666 17.3883 30.0696 16.9148C30.8764 16.4413 31.7893 16.2045 32.8082 16.2045C33.8272 16.2045 34.7382 16.4413 35.5412 16.9148C36.348 17.3883 36.9844 18.072 37.4503 18.9659C37.92 19.8561 38.1548 20.928 38.1548 22.1818ZM36.0355 22.1818C36.0355 21.2992 35.8973 20.5549 35.6207 19.9489C35.348 19.339 34.9692 18.8788 34.4844 18.5682C33.9995 18.2538 33.4408 18.0966 32.8082 18.0966C32.1757 18.0966 31.617 18.2538 31.1321 18.5682C30.6473 18.8788 30.2666 19.339 29.9901 19.9489C29.7173 20.5549 29.581 21.2992 29.581 22.1818C29.581 23.0644 29.7173 23.8106 29.9901 24.4205C30.2666 25.0265 30.6473 25.4867 31.1321 25.8011C31.617 26.1117 32.1757 26.267 32.8082 26.267C33.4408 26.267 33.9995 26.1117 34.4844 25.8011C34.9692 25.4867 35.348 25.0265 35.6207 24.4205C35.8973 23.8106 36.0355 23.0644 36.0355 22.1818ZM47.483 16.3636H49.5909V23.9659C49.5909 24.7992 49.3939 25.5322 49 26.1648C48.6098 26.7973 48.0606 27.2917 47.3523 27.6477C46.6439 28 45.8163 28.1761 44.8693 28.1761C43.9186 28.1761 43.089 28 42.3807 27.6477C41.6723 27.2917 41.1231 26.7973 40.733 26.1648C40.3428 25.5322 40.1477 24.7992 40.1477 23.9659V16.3636H42.2557V23.7898C42.2557 24.2746 42.3617 24.7064 42.5739 25.0852C42.7898 25.464 43.0928 25.7614 43.483 25.9773C43.8731 26.1894 44.3352 26.2955 44.8693 26.2955C45.4034 26.2955 45.8655 26.1894 46.2557 25.9773C46.6496 25.7614 46.9527 25.464 47.1648 25.0852C47.3769 24.7064 47.483 24.2746 47.483 23.7898V16.3636ZM51.8821 28V16.3636H56.2457C57.1397 16.3636 57.8897 16.5189 58.4957 16.8295C59.1056 17.1402 59.5658 17.5758 59.8764 18.1364C60.1908 18.6932 60.348 19.3428 60.348 20.0852C60.348 20.8314 60.1889 21.4792 59.8707 22.0284C59.5563 22.5739 59.0923 22.9962 58.4787 23.2955C57.8651 23.5909 57.1113 23.7386 56.2173 23.7386H53.1094V21.9886H55.9332C56.456 21.9886 56.884 21.9167 57.2173 21.7727C57.5507 21.625 57.7969 21.411 57.956 21.1307C58.1188 20.8466 58.2003 20.4981 58.2003 20.0852C58.2003 19.6723 58.1188 19.3201 57.956 19.0284C57.7931 18.733 57.545 18.5095 57.2116 18.358C56.8783 18.2027 56.4484 18.125 55.9219 18.125H53.9901V28H51.8821ZM57.8935 22.7273L60.7741 28H58.4219L55.5923 22.7273H57.8935ZM67.7514 28H65.5014L69.598 16.3636H72.2003L76.3026 28H74.0526L70.9446 18.75H70.8537L67.7514 28ZM67.8253 23.4375H73.9616V25.1307H67.8253V23.4375ZM87.2486 20.2898H85.1236C85.063 19.9413 84.9512 19.6326 84.7884 19.3636C84.6255 19.0909 84.4228 18.8598 84.1804 18.6705C83.938 18.4811 83.6615 18.339 83.3509 18.2443C83.044 18.1458 82.7126 18.0966 82.3565 18.0966C81.724 18.0966 81.1634 18.2557 80.6747 18.5739C80.1861 18.8883 79.8035 19.3504 79.527 19.9602C79.2505 20.5663 79.1122 21.3068 79.1122 22.1818C79.1122 23.072 79.2505 23.822 79.527 24.4318C79.8073 25.0379 80.1899 25.4962 80.6747 25.8068C81.1634 26.1136 81.7221 26.267 82.3509 26.267C82.6993 26.267 83.0251 26.2216 83.3281 26.1307C83.6349 26.036 83.9096 25.8977 84.152 25.7159C84.3982 25.5341 84.6046 25.3106 84.7713 25.0455C84.9418 24.7803 85.0592 24.4773 85.1236 24.1364L87.2486 24.1477C87.169 24.7008 86.9967 25.2197 86.7315 25.7045C86.4702 26.1894 86.1274 26.6174 85.7031 26.9886C85.2789 27.3561 84.7827 27.6439 84.2145 27.8523C83.6463 28.0568 83.0156 28.1591 82.3224 28.1591C81.2997 28.1591 80.3868 27.9223 79.5838 27.4489C78.7808 26.9754 78.1482 26.2917 77.6861 25.3977C77.224 24.5038 76.9929 23.4318 76.9929 22.1818C76.9929 20.928 77.2259 19.8561 77.6918 18.9659C78.1577 18.072 78.7921 17.3883 79.5952 16.9148C80.3982 16.4413 81.3073 16.2045 82.3224 16.2045C82.9702 16.2045 83.5724 16.2955 84.1293 16.4773C84.6861 16.6591 85.1823 16.9261 85.6179 17.2784C86.0535 17.6269 86.4115 18.0549 86.6918 18.5625C86.9759 19.0663 87.1615 19.642 87.2486 20.2898ZM99.1392 20.2898H97.0142C96.9536 19.9413 96.8419 19.6326 96.679 19.3636C96.5161 19.0909 96.3134 18.8598 96.071 18.6705C95.8286 18.4811 95.5521 18.339 95.2415 18.2443C94.9347 18.1458 94.6032 18.0966 94.2472 18.0966C93.6146 18.0966 93.054 18.2557 92.5653 18.5739C92.0767 18.8883 91.6941 19.3504 91.4176 19.9602C91.1411 20.5663 91.0028 21.3068 91.0028 22.1818C91.0028 23.072 91.1411 23.822 91.4176 24.4318C91.6979 25.0379 92.0805 25.4962 92.5653 25.8068C93.054 26.1136 93.6127 26.267 94.2415 26.267C94.59 26.267 94.9157 26.2216 95.2188 26.1307C95.5256 26.036 95.8002 25.8977 96.0426 25.7159C96.2888 25.5341 96.4953 25.3106 96.6619 25.0455C96.8324 24.7803 96.9498 24.4773 97.0142 24.1364L99.1392 24.1477C99.0597 24.7008 98.8873 25.2197 98.6222 25.7045C98.3608 26.1894 98.018 26.6174 97.5938 26.9886C97.1695 27.3561 96.6733 27.6439 96.1051 27.8523C95.5369 28.0568 94.9063 28.1591 94.2131 28.1591C93.1903 28.1591 92.2775 27.9223 91.4744 27.4489C90.6714 26.9754 90.0388 26.2917 89.5767 25.3977C89.1146 24.5038 88.8835 23.4318 88.8835 22.1818C88.8835 20.928 89.1165 19.8561 89.5824 18.9659C90.0483 18.072 90.6828 17.3883 91.4858 16.9148C92.2888 16.4413 93.1979 16.2045 94.2131 16.2045C94.8608 16.2045 95.4631 16.2955 96.0199 16.4773C96.5767 16.6591 97.0729 16.9261 97.5085 17.2784C97.9441 17.6269 98.3021 18.0549 98.5824 18.5625C98.8665 19.0663 99.0521 19.642 99.1392 20.2898ZM111.467 22.1818C111.467 23.4356 111.232 24.5095 110.763 25.4034C110.297 26.2936 109.661 26.9754 108.854 27.4489C108.051 27.9223 107.14 28.1591 106.121 28.1591C105.102 28.1591 104.189 27.9223 103.382 27.4489C102.579 26.9716 101.943 26.2879 101.473 25.3977C101.007 24.5038 100.774 23.4318 100.774 22.1818C100.774 20.928 101.007 19.8561 101.473 18.9659C101.943 18.072 102.579 17.3883 103.382 16.9148C104.189 16.4413 105.102 16.2045 106.121 16.2045C107.14 16.2045 108.051 16.4413 108.854 16.9148C109.661 17.3883 110.297 18.072 110.763 18.9659C111.232 19.8561 111.467 20.928 111.467 22.1818ZM109.348 22.1818C109.348 21.2992 109.21 20.5549 108.933 19.9489C108.661 19.339 108.282 18.8788 107.797 18.5682C107.312 18.2538 106.753 18.0966 106.121 18.0966C105.488 18.0966 104.929 18.2538 104.445 18.5682C103.96 18.8788 103.579 19.339 103.303 19.9489C103.03 20.5549 102.893 21.2992 102.893 22.1818C102.893 23.0644 103.03 23.8106 103.303 24.4205C103.579 25.0265 103.96 25.4867 104.445 25.8011C104.929 26.1117 105.488 26.267 106.121 26.267C106.753 26.267 107.312 26.1117 107.797 25.8011C108.282 25.4867 108.661 25.0265 108.933 24.4205C109.21 23.8106 109.348 23.0644 109.348 22.1818ZM120.795 16.3636H122.903V23.9659C122.903 24.7992 122.706 25.5322 122.312 26.1648C121.922 26.7973 121.373 27.2917 120.665 27.6477C119.956 28 119.129 28.1761 118.182 28.1761C117.231 28.1761 116.402 28 115.693 27.6477C114.985 27.2917 114.436 26.7973 114.045 26.1648C113.655 25.5322 113.46 24.7992 113.46 23.9659V16.3636H115.568V23.7898C115.568 24.2746 115.674 24.7064 115.886 25.0852C116.102 25.464 116.405 25.7614 116.795 25.9773C117.186 26.1894 117.648 26.2955 118.182 26.2955C118.716 26.2955 119.178 26.1894 119.568 25.9773C119.962 25.7614 120.265 25.464 120.477 25.0852C120.689 24.7064 120.795 24.2746 120.795 23.7898V16.3636ZM134.757 16.3636V28H132.882L127.399 20.0739H127.303V28H125.195V16.3636H127.081L132.558 24.2955H132.661V16.3636H134.757ZM136.543 18.1307V16.3636H145.827V18.1307H142.23V28H140.139V18.1307H136.543Z" fill="#0F67F5"/>
<line x1="8.74228e-08" y1="43" x2="163" y2="43" stroke="#0F67F5" stroke-width="2"/>
<path d="M180.409 28V16.3636H184.341C185.254 16.3636 186 16.5284 186.58 16.858C187.163 17.1837 187.595 17.625 187.875 18.1818C188.155 18.7386 188.295 19.3598 188.295 20.0455C188.295 20.7311 188.155 21.3542 187.875 21.9148C187.598 22.4754 187.17 22.9223 186.591 23.2557C186.011 23.5852 185.269 23.75 184.364 23.75H181.545V22.5H184.318C184.943 22.5 185.445 22.392 185.824 22.1761C186.203 21.9602 186.477 21.6686 186.648 21.3011C186.822 20.9299 186.909 20.5114 186.909 20.0455C186.909 19.5795 186.822 19.1629 186.648 18.7955C186.477 18.428 186.201 18.1402 185.818 17.9318C185.436 17.7197 184.928 17.6136 184.295 17.6136H181.818V28H180.409ZM189.855 28H188.378L192.651 16.3636H194.105L198.378 28H196.901L193.423 18.2045H193.332L189.855 28ZM190.401 23.4545H196.355V24.7045H190.401V23.4545ZM198.003 16.3636H199.616L202.844 21.7955H202.98L206.207 16.3636H207.821L203.616 23.2045V28H202.207V23.2045L198.003 16.3636ZM209.643 16.3636H211.325L215.28 26.0227H215.416L219.371 16.3636H221.053V28H219.734V19.1591H219.621L215.984 28H214.712L211.075 19.1591H210.962V28H209.643V16.3636ZM223.878 28V16.3636H230.901V17.6136H225.287V21.5455H230.537V22.7955H225.287V26.75H230.991V28H223.878ZM242.668 16.3636V28H241.304L234.963 18.8636H234.849V28H233.44V16.3636H234.804L241.168 25.5227H241.281V16.3636H242.668ZM244.851 17.6136V16.3636H253.578V17.6136H249.919V28H248.51V17.6136H244.851Z" fill="#333333"/>
<rect width="264" height="76" transform="translate(0 60)" fill="white"/>
<rect x="12" y="72" width="99" height="12" fill="#EBEBEB"/>
<rect x="12" y="92" width="240" height="12" fill="#EBEBEB"/>
<rect x="12" y="112" width="240" height="12" fill="#EBEBEB"/>
</svg>

<svg width="271" height="136" fill="none" xmlns="http://www.w3.org/2000/svg"><path fill="#fff" d="M0 0h264v44H0z"/><path stroke="#EBEBEB" d="M0 43.5h264"/><path d="M16.35 16.36h2.38l2.85 5.15h.11l2.85-5.15h2.38l-4.23 7.3V28h-2.1v-4.34l-4.24-7.3Zm21.8 5.82a6.8 6.8 0 0 1-.7 3.22 4.99 4.99 0 0 1-4.64 2.76 5.08 5.08 0 0 1-4.65-2.76c-.47-.9-.7-1.97-.7-3.22 0-1.25.23-2.32.7-3.21a5.03 5.03 0 0 1 4.65-2.77 4.98 4.98 0 0 1 4.64 2.76c.47.9.7 1.97.7 3.22Zm-2.11 0c0-.88-.14-1.63-.42-2.23a3.07 3.07 0 0 0-1.14-1.38 3.01 3.01 0 0 0-1.67-.47c-.63 0-1.2.15-1.68.47A3.1 3.1 0 0 0 30 19.95c-.27.6-.4 1.35-.4 2.23 0 .88.13 1.63.4 2.24.28.6.66 1.07 1.14 1.38.49.31 1.05.47 1.68.47.63 0 1.19-.16 1.67-.47.49-.31.87-.77 1.14-1.38a5.4 5.4 0 0 0 .42-2.24Zm11.44-5.82h2.11v7.6a4 4 0 0 1-2.24 3.68c-.7.36-1.53.54-2.48.54s-1.78-.18-2.49-.53a4 4 0 0 1-1.65-1.49 4.1 4.1 0 0 1-.58-2.2v-7.6h2.1v7.43c0 .48.11.92.32 1.3.22.37.52.67.91.89.4.2.86.32 1.39.32.53 0 1-.11 1.39-.32a2.47 2.47 0 0 0 1.22-2.19v-7.43ZM51.88 28V16.36h4.37c.89 0 1.64.16 2.25.47.6.31 1.07.75 1.38 1.3.31.56.47 1.21.47 1.96a3.8 3.8 0 0 1-.48 1.94c-.31.54-.78.97-1.4 1.27-.6.3-1.36.44-2.25.44H53.1v-1.75h2.82c.53 0 .95-.07 1.29-.22.33-.14.58-.36.74-.64.16-.28.24-.63.24-1.04 0-.42-.08-.77-.24-1.06-.17-.3-.41-.52-.75-.67a3.07 3.07 0 0 0-1.29-.23H54V28h-2.1Zm6.01-5.27L60.77 28h-2.35l-2.83-5.27h2.3ZM67.75 28H65.5l4.1-11.64h2.6L76.3 28h-2.25l-3.1-9.25h-.1L67.75 28Zm.08-4.56h6.13v1.7h-6.13v-1.7Zm19.42-3.15h-2.13a2.65 2.65 0 0 0-.94-1.62 2.53 2.53 0 0 0-.83-.43 3.24 3.24 0 0 0-2.68.33c-.48.32-.87.78-1.14 1.39-.28.6-.42 1.35-.42 2.22 0 .9.14 1.64.42 2.25.28.6.66 1.07 1.14 1.38a3.39 3.39 0 0 0 2.65.32 2.68 2.68 0 0 0 1.45-1.08c.17-.27.29-.57.35-.91h2.13a4.57 4.57 0 0 1-3.04 3.71c-.56.2-1.2.3-1.89.3a4.96 4.96 0 0 1-4.64-2.76 6.9 6.9 0 0 1-.69-3.2c0-1.26.24-2.33.7-3.22a5 5 0 0 1 4.63-2.77c.65 0 1.25.1 1.8.28a4.6 4.6 0 0 1 1.5.8 4.7 4.7 0 0 1 1.63 3.01Zm11.89 0H97a2.64 2.64 0 0 0-.94-1.62 2.53 2.53 0 0 0-.83-.43 3.24 3.24 0 0 0-2.67.33c-.5.32-.88.78-1.15 1.39-.28.6-.42 1.35-.42 2.22 0 .9.14 1.64.42 2.25.28.6.66 1.07 1.15 1.38a3.39 3.39 0 0 0 2.65.32 2.68 2.68 0 0 0 1.44-1.08c.17-.27.29-.57.35-.91h2.13a4.57 4.57 0 0 1-3.03 3.71c-.57.2-1.2.3-1.9.3a4.96 4.96 0 0 1-4.64-2.76 6.9 6.9 0 0 1-.69-3.2c0-1.26.24-2.33.7-3.22a5 5 0 0 1 4.63-2.77c.65 0 1.25.1 1.81.28.56.18 1.05.45 1.49.8a4.7 4.7 0 0 1 1.63 3.01Zm12.33 1.9c0 1.25-.24 2.32-.7 3.21a4.99 4.99 0 0 1-4.65 2.76 5.08 5.08 0 0 1-4.65-2.76c-.46-.9-.7-1.97-.7-3.22 0-1.25.24-2.32.7-3.21a5.03 5.03 0 0 1 4.65-2.77 4.98 4.98 0 0 1 4.64 2.76c.47.9.7 1.97.7 3.22Zm-2.12 0c0-.9-.14-1.64-.42-2.24a3.07 3.07 0 0 0-1.13-1.38 3.01 3.01 0 0 0-1.68-.47 3 3 0 0 0-1.68.47 3.1 3.1 0 0 0-1.14 1.38c-.27.6-.4 1.35-.4 2.23 0 .88.13 1.63.4 2.24.28.6.66 1.07 1.14 1.38.49.31 1.05.47 1.68.47.63 0 1.2-.16 1.68-.47a3.1 3.1 0 0 0 1.13-1.38 5.4 5.4 0 0 0 .42-2.24Zm11.45-5.83h2.1v7.6a4 4 0 0 1-2.24 3.68c-.7.36-1.53.54-2.48.54s-1.78-.18-2.49-.53a4 4 0 0 1-1.64-1.49 4.1 4.1 0 0 1-.59-2.2v-7.6h2.1v7.43a2.4 2.4 0 0 0 1.23 2.19c.4.2.86.32 1.4.32.53 0 .99-.11 1.38-.32a2.48 2.48 0 0 0 1.23-2.19v-7.43Zm13.96 0V28h-1.88l-5.48-7.93h-.1V28h-2.1V16.36h1.88l5.48 7.94h.1v-7.94h2.1Zm1.78 1.77v-1.77h9.29v1.77h-3.6V28h-2.1v-9.87h-3.59Z" fill="#0F67F5"/><path stroke="#0F67F5" stroke-width="2" d="M0 43h163"/><path d="M180.4 28V16.36h3.94c.91 0 1.66.17 2.24.5a3.1 3.1 0 0 1 1.3 1.32c.28.56.41 1.18.41 1.87 0 .68-.13 1.3-.41 1.86a3.16 3.16 0 0 1-1.29 1.35c-.58.33-1.32.49-2.23.49h-2.82V22.5h2.78c.62 0 1.13-.1 1.5-.32.38-.22.66-.51.83-.88.17-.37.26-.79.26-1.25 0-.47-.09-.89-.26-1.25a1.87 1.87 0 0 0-.83-.87 3.14 3.14 0 0 0-1.53-.32h-2.47V28h-1.41Zm9.45 0h-1.47l4.27-11.64h1.45L198.38 28h-1.48l-3.48-9.8h-.09l-3.48 9.8Zm.55-4.55h5.95v1.25h-5.95v-1.25Zm7.6-7.09h1.62l3.22 5.44h.14l3.23-5.44h1.61l-4.2 6.84V28h-1.41v-4.8l-4.2-6.84Zm11.64 0h1.69l3.95 9.66h.14l3.95-9.66h1.68V28h-1.32v-8.84h-.1L215.97 28h-1.27l-3.64-8.84h-.1V28h-1.33V16.36ZM223.88 28V16.36h7.02v1.25h-5.61v3.94h5.25v1.25h-5.25v3.95h5.7V28h-7.11Zm18.79-11.64V28h-1.37l-6.34-9.14h-.11V28h-1.41V16.36h1.36l6.37 9.16h.11v-9.16h1.39Zm2.18 1.25v-1.25h8.73v1.25h-3.66V28h-1.41V17.61h-3.66Z" fill="#333"/><path fill="#fff" d="M0 60h264v76H0z"/><path fill="#EBEBEB" d="M12 72h99v12H12zm0 20h240v12H12zm0 20h240v12H12z"/></svg>
